packages/core/src/svgs/tokens/mono/XHV.svg

<svg width="24" height="24" viewBox="0 0 24 24" fill="none" xmlns="http://www.w3.org/2000/svg">
<path d="M15.125 8.43747L5.75 14.2V20.1249H8.87498V15.6186L18.25 9.84366V3.87499H15.125V8.43747ZM13.25 7.46873V2H20.125V10.9562L10.75 16.5937V22H3.875V13.1374L13.25 7.46873ZM3.875 2H10.75V7.46873L8.87498 8.43123V3.87499H5.75V10.3563L3.875 11.3188V2ZM13.25 16.5874L15.125 15.6062V20.1249H18.25V13.6687L20.125 12.6999V22H13.25V16.5874Z" fill="white"/>
</svg>

<svg xmlns="http://www.w3.org/2000/svg" width="24" height="24" fill="none" viewBox="0 0 24 24">
    <path fill="#fff" d="M15.125 8.437 5.75 14.2v5.925h3.125v-4.506l9.375-5.775V3.875h-3.125zM13.25 7.47V2h6.875v8.956l-9.375 5.638V22H3.875v-8.863zM3.875 2h6.875v5.469l-1.875.962V3.875H5.75v6.481l-1.875.963zm9.375 14.587 1.875-.98v4.518h3.125v-6.456l1.875-.97V22H13.25z"/>
</svg>
